src/img/gallery/arrows.svg

<svg width="57" height="55" viewBox="0 0 57 55" fill="none" xmlns="http://www.w3.org/2000/svg">
<path d="M28.5 55C44.2401 55 57 42.6878 57 27.5C57 12.3122 44.2401 0 28.5 0C12.7599 0 0 12.3122 0 27.5C0 42.6878 12.7599 55 28.5 55Z" fill="#D77C69"/>
<path d="M45.8875 27.0884L38.0375 20.162C37.7777 19.9406 37.3635 19.9469 37.1126 20.1762C36.8677 20.3999 36.8677 20.7545 37.1126 20.9782L44.5 27.4965L37.1126 34.0148C36.8572 34.2402 36.8572 34.6056 37.1126 34.831C37.368 35.0563 37.7821 35.0563 38.0375 34.831L45.8875 27.9046C46.1429 27.6792 46.1429 27.3138 45.8875 27.0884Z" fill="white"/>
<path d="M13.3544 27.9116L21.6661 34.838C21.9413 35.0594 22.3798 35.0531 22.6455 34.8238C22.9048 34.6001 22.9048 34.2455 22.6455 34.0218L14.8235 27.5035L22.6455 20.9852C22.9159 20.7598 22.9159 20.3944 22.6455 20.169C22.375 19.9437 21.9366 19.9437 21.6661 20.169L13.3544 27.0954C13.084 27.3208 13.084 27.6862 13.3544 27.9116Z" fill="white"/>
</svg>

<svg width="57" height="55" fill="none" xmlns="http://www.w3.org/2000/svg"><path d="M28.5 55C44.24 55 57 42.688 57 27.5S44.24 0 28.5 0 0 12.312 0 27.5 12.76 55 28.5 55z" fill="#D77C69"/><path d="M45.888 27.088l-7.85-6.926a.717.717 0 00-.925.014.53.53 0 000 .802l7.387 6.518-7.387 6.519a.53.53 0 000 .816c.255.225.67.225.925 0l7.85-6.926a.53.53 0 000-.817zM13.354 27.912l8.312 6.926a.794.794 0 00.98-.014.51.51 0 000-.802l-7.823-6.518 7.822-6.519a.512.512 0 000-.816.794.794 0 00-.979 0l-8.312 6.926a.512.512 0 000 .817z" fill="#fff"/></svg>
